X: 1
T: Simon Thoumire's Jig
C: John McCusker
R: jig
Z: 2013 John Chambers <jc:trillian.mit.edu>
M: 6/8
L: 1/8
K: G
|:\
"G"G2D "C"EDE | "G"GA(^A B)de | "G"gfd "C"ege | "G"dBG "D"ABA |\
"G"G2D "C"EDE | "G"GA(^A B)de | "G"gfd "C"e{f}ge | "D"dBA "G"G2z :|
|:\
"G(Em)"gfd "C"ezg- | "G"gfe edg | "C"edB "G"BAG | "Am"ABG "D7"E2D |\
"G"G2D "C"EDE | "G"GA(^A B)de | "G"gfd "C"e{f}ge | "D"dBA "G"G2z :|

%%newpage

%%sep 1 1 500

